X: 10842
T: Dregs Of Birch, The
R: reel
M: 4/4
K: Gmajor
|:B2 AG Bded|GBAG E2 GA|Bdgf edGA|BdBA GE E2|
B2 AG B2 (3def|gfed g2 GA|B2 BG A2 ed|de G2 G2 z2:|
|:e3f gfed|GBBA Ge e2|e2 de g3a|gfed g4|
edef gfed|GBBA Gedc|B3A AGed|de G2 G2 z2:|

